packages/bezier-icons/icons/skip-filled.svg

<svg width="24" height="24" viewBox="0 0 24 24" fill="none" xmlns="http://www.w3.org/2000/svg">
<path fill-rule="evenodd" clip-rule="evenodd" d="M15.5 11.4C15.9 11.7 15.9 12.3 15.5 12.6L5.50005 20.1C5.00562 20.4708 4.30005 20.118 4.30005 19.5L4.30005 4.5C4.30005 3.88197 5.00562 3.52918 5.50005 3.9L15.5 11.4Z" fill="#313234"/>
<path d="M16.3 4.19998C16.3 3.86861 16.5687 3.59998 16.9 3.59998H19.1C19.4314 3.59998 19.7 3.8686 19.7 4.19998V19.8C19.7 20.1313 19.4314 20.4 19.1 20.4H16.9C16.5687 20.4 16.3 20.1313 16.3 19.8V4.19998Z" fill="#313234"/>
</svg>

<svg xmlns="http://www.w3.org/2000/svg" width="24" height="24" fill="none" viewBox="0 0 24 24"><path fill="#313234" fill-rule="evenodd" d="M15.5 11.4c.4.3.4.9 0 1.2l-10 7.5a.75.75 0 0 1-1.2-.6v-15a.75.75 0 0 1 1.2-.6z" clip-rule="evenodd"/><path fill="#313234" d="M16.3 4.2a.6.6 0 0 1 .6-.6h2.2a.6.6 0 0 1 .6.6v15.6a.6.6 0 0 1-.6.6h-2.2a.6.6 0 0 1-.6-.6z"/></svg>
